X: 29096
T: Neily Cleere's
R: polka
M: 2/4
K: Dmajor
|:CD|~E2 EF|GA, CD|EF G/F/E|DF/D/ CD|
E2 EF|GB cd/c/|BA GE|1 DE/D/:|2 D2||
|:cd|e/f/e/d/ ce|dB cd|e/f/e/d/ ce|d2 cd|
e/f/e/d/ ce|dB c e/c/|BA GE|D2:|

